X:0899
T:Hey me Nanny,
C:Irish.
M:9/8
L:1/8
Q:3/8=112
I: :: :|
Z:Jack Campin * www.campin.me.uk * 2009
K:D
d2B  AFA     AFA|d2B  AFD     E3 |d2B  AFA     AFA|d2B AFA D3:|
f2d (f/g/)af ecA|fed (f/g/)af e2g|fed (f/g/)af ecA|dcd AFA D3:|
<end>
<start>
